packages/ui/public/icons/comments.svg

<svg width="17" height="17" viewBox="0 0 17 17" fill="none" xmlns="http://www.w3.org/2000/svg">
<path fill-rule="evenodd" clip-rule="evenodd" d="M8.36285 14.489C8.31238 14.4899 8.26179 14.4903 8.21109 14.4903C3.68702 14.4903 0.0195312 11.2465 0.0195312 7.24513C0.0195312 3.24376 3.68702 0 8.21109 0C12.7352 0 16.4027 3.24376 16.4027 7.24513C16.4027 8.25709 16.1681 9.2206 15.7444 10.0954C15.176 11.3323 14.2986 12.436 13.347 13.3882C11.897 14.8391 10.2192 15.9343 9.02455 16.5515C8.70853 16.7148 8.36285 16.4592 8.36285 16.1031V14.489ZM5.40256 7.61988C5.40256 8.30977 4.87863 8.86904 4.23233 8.86904C3.58604 8.86904 3.06211 8.30977 3.06211 7.61988C3.06211 6.92999 3.58604 6.37072 4.23233 6.37072C4.87863 6.37072 5.40256 6.92999 5.40256 7.61988ZM8.21109 8.86904C8.85739 8.86904 9.38132 8.30977 9.38132 7.61988C9.38132 6.92999 8.85739 6.37072 8.21109 6.37072C7.5648 6.37072 7.04087 6.92999 7.04087 7.61988C7.04087 8.30977 7.5648 8.86904 8.21109 8.86904ZM13.3601 7.61988C13.3601 8.30977 12.8361 8.86904 12.1898 8.86904C11.5436 8.86904 11.0196 8.30977 11.0196 7.61988C11.0196 6.92999 11.5436 6.37072 12.1898 6.37072C12.8361 6.37072 13.3601 6.92999 13.3601 7.61988Z" fill="#FBFBFB"/>
</svg>

<svg width="17" height="17" fill="none" xmlns="http://www.w3.org/2000/svg"><path fill-rule="evenodd" clip-rule="evenodd" d="m8.363 14.489-.152.001C3.687 14.49.02 11.246.02 7.245.02 3.244 3.687 0 8.21 0c4.524 0 8.192 3.244 8.192 7.245a6.511 6.511 0 0 1-.659 2.85c-.568 1.237-1.445 2.341-2.397 3.293a18.246 18.246 0 0 1-4.322 3.164c-.316.163-.662-.093-.662-.449V14.49Zm-2.96-6.87c0 .69-.524 1.25-1.17 1.25-.647 0-1.17-.56-1.17-1.25 0-.689.523-1.248 1.17-1.248.646 0 1.17.559 1.17 1.249ZM8.21 8.87c.646 0 1.17-.56 1.17-1.25 0-.689-.524-1.248-1.17-1.248-.646 0-1.17.559-1.17 1.249 0 .69.524 1.249 1.17 1.249Zm5.15-1.25c0 .69-.525 1.25-1.171 1.25s-1.17-.56-1.17-1.25c0-.689.524-1.248 1.17-1.248.646 0 1.17.559 1.17 1.249Z" fill="#FBFBFB"/></svg>
